Papirus-nordic/64x64/places/folder-red-pcloud.svg

<svg xmlns="http://www.w3.org/2000/svg" width="64" height="64" version="1.1">
 <rect style="opacity:0.2" width="50" height="32" x="7" y="24" rx="2.5" ry="2.5"/>
 <path style="fill:#ae4f58" d="M 7,44.5 C 7,45.885 8.115,47 9.5,47 H 54.5 C 55.885,47 57,45.885 57,44.5 V 17.5 C 57,16.115 55.885,15 54.5,15 H 29 V 12.5 C 29,11.115 27.885,10 26.5,10 H 9.5 C 8.115,10 7,11.115 7,12.5"/>
 <rect style="opacity:0.2" width="50" height="32" x="7" y="22" rx="2.5" ry="2.5"/>
 <rect style="fill:#e4e4e4" width="44" height="20" x="10" y="18" rx="2.5" ry="2.5"/>
 <rect style="fill:#bf616a" width="50" height="32" x="7" y="23" rx="2.5" ry="2.5"/>
 <path style="fill:#974a4d" d="M 32.5 28 A 10.214286 10.214286 0 0 0 23.056641 34.333984 A 7.8571429 7.8571429 0 0 0 16 42.142578 A 7.8571429 7.8571429 0 0 0 23.857422 50 L 42.322266 50 C 45.142862 50 47.427734 47.713175 47.427734 44.892578 C 47.427734 42.96447 46.348622 41.304758 44.771484 40.435547 A 4.7142857 4.7142857 0 0 0 45.857422 37.427734 A 4.7142857 4.7142857 0 0 0 41.142578 32.714844 A 4.7142857 4.7142857 0 0 0 41.105469 32.714844 A 10.214286 10.214286 0 0 0 32.5 28 z M 33 31 A 6.9999991 6.9999991 0 0 1 40 38 A 6.9999991 6.9999991 0 0 1 33 45 A 6.9999991 6.9999991 0 0 1 26 38 A 6.9999991 6.9999991 0 0 1 33 31 z M 33 33 A 5 5 0 0 0 30.009766 34 L 32 34 L 33.529297 34 C 34.999297 34 36 34.490309 36 36.357422 C 36 38.533177 34.999297 39 33.529297 39 L 32 39 L 32 42 L 30.009766 42 A 5 5 0 0 0 33 43 A 5 5 0 0 0 38 38 A 5 5 0 0 0 33 33 z M 30 34.007812 A 5 5 0 0 0 28 38 A 5 5 0 0 0 30 41.992188 L 30 38.714844 L 30 34.007812 z M 32 36 L 32 37 L 33 37 C 33.587821 37 34.000002 36.999976 34 36.511719 C 34.000002 35.999976 33.639263 36 33 36 L 32 36 z"/>
 <path style="opacity:0.1;fill:#ffffff" d="M 9.5,10 C 8.115,10 7,11.115 7,12.5 V 13.5 C 7,12.115 8.115,11 9.5,11 H 26.5 C 27.885,11 29,12.115 29,13.5 V 12.5 C 29,11.115 27.885,10 26.5,10 Z M 29,15 V 16 H 54.5 C 55.89,16 57,17.115 57,18.5 V 17.5 C 57,16.115 55.89,15 54.5,15 Z"/>
</svg>

<svg xmlns="http://www.w3.org/2000/svg" width="64" height="64"><rect width="50" height="32" x="7" y="24" rx="2.5" ry="2.5" opacity=".2"/><path d="M7 44.5C7 45.885 8.115 47 9.5 47h45c1.385 0 2.5-1.115 2.5-2.5v-27c0-1.385-1.115-2.5-2.5-2.5H29v-2.5c0-1.385-1.115-2.5-2.5-2.5h-17A2.495 2.495 0 0 0 7 12.5" fill="#ae4f58"/><rect width="50" height="32" x="7" y="22" rx="2.5" ry="2.5" opacity=".2"/><rect width="44" height="20" x="10" y="18" rx="2.5" ry="2.5" fill="#e4e4e4"/><rect width="50" height="32" x="7" y="23" rx="2.5" ry="2.5" fill="#bf616a"/><path d="M32.5 28a10.214 10.214 0 0 0-9.443 6.334A7.857 7.857 0 0 0 16 42.143 7.857 7.857 0 0 0 23.857 50h18.465a5.106 5.106 0 0 0 5.106-5.107c0-1.929-1.08-3.588-2.657-4.457a4.714 4.714 0 0 0 1.086-3.008 4.714 4.714 0 0 0-4.714-4.713 4.714 4.714 0 0 0-.038 0A10.214 10.214 0 0 0 32.5 28zm.5 3a7 7 0 0 1 7 7 7 7 0 0 1-7 7 7 7 0 0 1-7-7 7 7 0 0 1 7-7zm0 2a5 5 0 0 0-2.99 1h3.52C35 34 36 34.49 36 36.357 36 38.533 35 39 33.53 39H32v3h-1.99A5 5 0 0 0 33 43a5 5 0 0 0 5-5 5 5 0 0 0-5-5zm-3 1.008A5 5 0 0 0 28 38a5 5 0 0 0 2 3.992v-7.984zM32 36v1h1c.588 0 1 0 1-.488C34 36 33.64 36 33 36h-1z" fill="#974a4d"/><path d="M9.5 10A2.495 2.495 0 0 0 7 12.5v1C7 12.115 8.115 11 9.5 11h17c1.385 0 2.5 1.115 2.5 2.5v-1c0-1.385-1.115-2.5-2.5-2.5zM29 15v1h25.5c1.39 0 2.5 1.115 2.5 2.5v-1c0-1.385-1.11-2.5-2.5-2.5z" opacity=".1" fill="#fff"/></svg>
